X:1
T:Betörte Welt !
T:Johann Sebastian Bach arr. André Papillon 
T:BWV 94/4
%%score 1 { 2 | 3 }
L:1/8
Q:1/4=42
M:4/4
K:G
V:1 treble nm="Flûte, Flute"
V:2 treble nm="Piano, Piano"
V:3 bass 
V:1
"^Adagio" B | G/F/G/B/ e/g/^d/e/ c/^A/B/=a/ (g>f) | g/^d/e/g/ c'/^a/b/g/ f/d/e/^A/ B2- | %3
 B/=d/^g/b/ =fe/>d/ c/^G/A/c/ ^F2- | F/A/^d/f/ cB/>A/ =G/^D/E/G/ ^c2- | %5
 c/e/^a/^c'/ gf/>e/ (3(^d/e/f/)(3(=c/B/A/) =c'-c'/4=a/4b/4c'/4 | %6
 (b/4g/4a/4b/4)(a/4f/4g/4a/4) (g/4e/4f/4g/4)(f/4^d/4e/4f/4) (e/B/G/^D/) E2 | z8 | %8
 z4 z/ b/a/f/ g/^d/e/g/ | B/=d/=f/A/ ^G/e/d/B/ c/G/A/c/ ^D/c/B/A/ | %10
 =G/F/G/B/ e/g/^d/e/ c/^A/B/=a/ g>f | g/^d/e/g/ c'/^a/b/g/ f/d/e/^A/ B2- | %12
 B/^d/f/=a/ cB/>A/ G/^D/E/G/ c2- | c/f/a/c'/ e=d/>c/ B/F/G/B/ d2- | %14
 d/^g/b/d'/ =f(e/>d/) c/^G/A/c/ e2- | e/^a/^c'/e'/ =g^f/>e/ d/^A/B/d/ f2- | %16
 f/4d/4e/4f/4e/4^c/4d/4e/4 d/4B/4c/4d/4c/4^A/4B/4c/4 B2 z e- | e/g/^c'/e'/ gf/>e/ d z z2 | %18
 z2 a2- a/4f/4g/4a/4g/4e/4f/4g/4 f/4d/4e/4f/4e/4^c/4d/4e/4 | %19
 d/4B/4^c/4d/4c/4A/4B/4c/4 B2- B/4^G/4A/4B/4A/4F/4G/4A/4 G/4^E/4F/4G/4F/4^D/4E/4F/4 | %20
 ^E/^G/B/d/ f^e/>f/ =e/=g/^c'/e'/ b^a/>b/ | %21
 b/4^g/4=a/4b/4a/4f/4g/4a/4 g/4^e/4f/4g/4f/4^d/4e/4f/4 !trill(!Te2 !trill)!=e2- | e2 z2 z2 F2- | %23
 F/A/^d/f/ cB/>A/ G/^D/E/G/ ^c2- | c/e/^a/^c'/ gf/>e/ =d-d/4f/4e/4^d/4 e/4g/4f/4e/4f/4=a/4g/4f/4 | %25
 ^g/4b/4a/4g/4^a/4^c'/4b/4a/4 b/4d'/4c'/4b/4c'/4e'/4d'/4c'/4 d'-d'/4b/4c'/4d'/4 c'/4a/4b/4c'/4b/4=g/4=a/4b/4 | %26
 e/4=g/4f/4e/4f/4e/4f/4g/4 d^c/>B/ B/d/f/^a/ b[Q:1/4=144]"^Allegro"[Q:1/4=76] z | %27
 z2 z d e=f/d/ e^f | ga fe/f/ ga fe/f/ | %29
 g/4b/4a/4g/4f/4a/4g/4f/4 e/4g/4f/4e/4d/4f/4e/4d/4 ^c/4e/4d/4c/4a/4g/4f/4e/4 d/4f/4e/4d/4b/4f/4e/4d/4 | %30
 ^c/4e/4d/4c/4a/4g/4f/4e/4 d/4f/4e/4d/4b/4f/4e/4d/4 c/4A/4B/4c/4d/4B/4c/4d/4 e/4c/4d/4e/4f/4d/4e/4f/4 | %31
 g-g/4e/4f/4g/4 ^c/4d/4e/4f/4g/4a/4b/4^c'/4 d' z z2 | %32
 (3f/g/a/(3=c/B/A/ =c'-c'/4a/4b/4c'/4 b/4g/4f/4e/4d/4e/4f/4a/4 ^c/4d/4e/4g/4B/4c/4d/4g/4 | %33
 A/4g/4f/4e/4f/d/ ^c>d[Q:1/4=71]"^Adagio"[Q:1/4=42] d4- | d/d/^g/b/ =fe/>d/ c4- | %35
 c/4A/4B/4c/4B/4=G/4A/4B/4 A/4^F/4G/4A/4G/4E/4F/4G/4 F/4E/4^D/4E/4F/4G/4A/4B/4 c z | z8 | z8 | %38
 z2 z a- a/c'/^d'/f'/ c'b/>a/ | g2- g/e/^A/^c/ GF/>E/ D z | %40
 z2 ^c'-c'/4^a/4b/4c'/4 b/4g/4=a/4b/4a/4f/4g/4a/4 g/4e/4f/4g/4f/4d/4e/4f/4 | %41
 e/4^c/4d/4e/4d/4B/4c/4d/4 ^A>B B2 z B | G/F/G/B/ e/g/^d/e/ =c/^A/B/=a/ g>f | %43
 g/^d/e/g/ c'/^a/b/g/ f/d/e/^A/ B2 | z8 | z4 z/ b/a/f/ g/^d/e/g/ | %46
 B/d/=f/A/ ^G/e/d/B/ c/G/A/c/ ^D/c/B/A/ | =G/F/G/B/ e/g/^d/e/ c/^A/B/a/ g>f | %48
 g/^d/e/g/ c'/^a/b/g/ f/d/e/^A/ B2- | B/=d/^g/b/ =fe/>d/ c/^G/=A/c/ ^F2- | %50
 F/A/^d/f/ cB/>A/ G/^D/E/G/ ^c2- | c/e/^a/^c'/ gf/>e/ (3(^d/e/f/)(3(=c/B/A/) =c' z | %52
 z4 z/ ^A/^c/e/ gf/>e/ | %53
 (3(^d/e/f/)(3(=c/B/A/) (3(f/g/a/)(3(d/^c/B/) (3(a/b/=c'/)(3(f/e/d/) c'-c'/4a/4b/4c'/4 | %54
 b/4g/4a/4b/4a/4f/4g/4a/4 g/4e/4f/4g/4f/4^d/4e/4f/4 e/B/G/^D/ E z |] %55
V:2
 z | [B,EG]2 z [B,E] [B,F]2 z [^DF] | [B,EG]2 z [B,E] [^DF]2 z [B,DF] | %3
w: |||
 [B,D=F]2 z [^G,DE] [CE]2 z [^D^F] | [CF]2 z [^DF] [B,EG]2 z [^A,^CE] | %5
w: ||
 [G,^CE]2 z [^A,CF] [B,^DF]2 z [B,F] | [B,EG][A,F][CE][A,B,^D] [G,B,E]2 z B | %7
w: |* * * * * Be-|
 G/F/G- G/E/^D/E/ ^A2- A/F/E/F/ | A/B/c- c/B/4A/4B/ F/ G2 z E | d2- d/B/ ^G A z/ c/ B/A/=G/F/ | %10
w: tör- * * * * * * * * * * *|* * * * * * * te~ Welt,~ be|tör- * * te~ Welt,~ be tör- * * *|
 G/A/B- B/A/4G/4 F/G/4E/4 ^D z z [DF] | [EG]2 z [B,E] [^DF]2 F/c/B/ A/ | %12
w: * * * * * * te _ _ Welt!~ *|* * * Auch _ _ dein~|
 G F/E/ z2 z2 A/B/4c/4 B/A/ |{G} F2 z2 z2 B d/B/ | ^G2 z2 z E c/^A/ B | ^A2 z2 z F d/B/A/B/ | %16
w: Reich- tum,~ _ Gut~ _ _ und~ _|Geld~ ist Be- *|trug~ und fal- * scher~|Schein,~ Be- tör- * * *|
 G2- G/F/ E/^D/ E E ^c/^A/ B | ^A2 ^c F d B G/F/ G | ^C E ^c/A/G/A/ F3 B/^A/ | %19
w: * * * te~ _ Welt,~ be- tör- * te~|Welt,~ auch~ dein~ Reich tum,~ Gut~ _ und~|Geld,~ be tör- * * * * te~ *|
 B ^c d B ^G A B G/ ^E/ | ^c2 z ^C =G F2 E | ^D F B2- B A/^G/ ^A B | %22
w: Welt,~ dein~ Reich tum,~ Gut~ und~ Geld~ ist~ Be|trug und~ fal- * scher~|Schein,~ dein~ Reich- * tum,~ _ Gut~ und~|
 ^c E/ F/ G2- G/F/ ^E/F/ B^A/ d/ |{^c} B2 z [B,F] [B,G]2 z [^A,E] | %24
w: Geld~ ist~ Be- trug~ _ _ und~ _ fal * scher~|Schein!~ * * *|
 [^CE]2 z [^A,CE] [B,D][B,F][B,E][B,F] | [B,^G][^CF][B,F][E^A] [DB][EB][CA][=GB] | %26
w: ||
 [=G^A][FB][FB][EA] [DB]2 z F | G A/F/ G A B c A G/ A/ | B c A G/ A/ B c AG/A/ | %29
w: * * * * * Du~|magst~ den~ _ eit- len~ Mam mon~ zäh- len,~ ich~|will~ da für mir~ _ Je sum~ wäh- * *|
 B/c/A/B/ G/A/F/G/ E D/ E/ F G | E D/E/ F G E/G/F/A/ G/B/A/c/ | %31
w: * * * * * * * * * len,~ ich~ will~ da|für mir~ _ Je sum~ wäh- * * * * * * *|
 B/d/^c/d/4e/4 A2- A/B/4A/4G/4A/4B/ E>D | D2 z [CF] [B,G][DA][^CG][B,G] | %33
w: |len;~ * * * * *|
 [EG][DF][EA][EG] [DF]2 d B | ^G/A/4B/4 E z2 z2 c A | F2 z2 z2{F=G} AG/F/ | %36
w: * * * * * Je- sus,~|Je- * * sus~ soll~ al-|lein,~ Je- sus, _|
 G/^D/ E/G/ c B/A/ B/F/G E/d/c/ B/ | c3/2 B/ A/B/4A/4 G/A/4F/4 B/ E/^D/ E/ A/G/ A/F/ | %38
w: Je- * sus _ soll al- * lein~ _ _ mei- * * ner~|See- le~ Reich- * * thum~ _ _ sein~ mei- * ner~ See- * le~ _|
 G3/2A/4B/4 A/G/ F/G/4E/4 ^D z2 F- | F/^D/ E/G/ ^c2- c B/^A/ B c/d/ | %40
w: Reich- * * * * tum~ _ _ sein,~ Je-|* * sus,~ * Je- * sus,~ _ soll~ al- *|
 E F/ G/ F/E/ D/^C/ D2- D/^c/^A/B/ | F/E/F/G/ D^C/B,/ B, z2 z | [B,EG]2 z [B,E] [B,F]2 z [^DF] | %43
w: lein~ mei- ner~ See- * le~ _ Reich- * * * *|* * * * tum~ _ _ sein.~||
 [B,EG]2 z [B,E] [^DF]2 z B | G/F/G- G/E/^D/E/ ^A2- A/F/E/F/ | A/B/c- c/B/4A/4B/ F/ G2 z E | %46
w: * * * Be-|tör- * * * * * * * * * * *|* * * * * * * te~ Welt,~ be-|
 d2- d/B/ ^G A z/ c/ B/A/=G/F/ | G/A/B- B/ A/4G/4F/4G/4E/ ^D z2 [B,F] | %48
w: tör- * * te~ Welt,~ be tör- * * *|* * * * te~ _ _ _ _ Welt,~ *|
 [B,E]2 z [B,E] [^DF]2 z B/c/4d/4 | =FED ^G A/B/c z E | cBA ^D E/F/G z E | %51
w: * * * be- * *|tör- * * te~ Welt,~ _ _ be-|tör- * * te~ Welt,~ _ _ be-|
 ^A2- A/B/4A/4^G/A/ B/F/=A- A/B/4A/4=G/4A/4F/ | c/B/ ^A/ B/ G/F/ ^D/E/ E2 z [^CF] | %53
w: tör- * * * * * * * * * * * * * *|* * te,~ be- tör- * te~ _ Welt!~ *|
 [^DF]2 z [DA] [=CF]2 z [A,F] | [B,G][A,F][CE][A,B,^D] [G,B,E]4 |] %55
w: ||
V:3
 z | E,2 z G, ^D,2 z B,, | E,2 z G, B,2 z A, | ^G,2 z E, A,2 z C | ^D,2 z B,, E,2 z G, | %5
 ^A,,2 z F,, B,,2 z ^D, | E,C,A,,B,, E,,2 z2 | z E,F,G, z F,^C,F, | z ^D,B,,D, E,2 z C, | %9
 ^G,,2 z E,, A,,2 z ^D,, | E,,2 z C F,2 z B, | E,2 z G,, B,,2 z ^D, | E,C,A,,B,, E,,2 z E, | %13
 A,G,F,D, G,2 z =F, | E,^F,^G,E, z z2 =G, | F,G,^A,,F,, B,,2 z D, | E,2 z F, G,2 z G,, | %17
 F,,2 z ^A,, B,,D,E,G, | A,,2 z ^C, D,2 z F, | =F,2 z ^G,, D,2 z B,,- | %20
 B,,^E,,^G,,B,, ^A,,2 z F,, | A,,2 z A, ^G,2 z =G, | ^A,,2 z A,, D,B,,F,F,, | B,,2 z ^D, E,2 z G, | %24
 ^A,,2 z F,, B,,=A,,G,,^D,, | E,,E,=D,F, B,=G,E,D, | ^C,D,/E,/ F,F,, B,,C,D,B,, | %27
 E,^D,E,F, G,A,/B,/ CD | G,C,D,D,, G,,C,D,D,, | G,,2 z D,, A,,^C,D,G,, | A,,^C,D,G,, A,,2 z2 | %31
 E,A, z E, F,B,/G,/ A,A,, | D,2 z D, G,F,E,D, | ^C,D,A,A,, D,2 z D, | B,,2 z ^G,, A,,2 z C | %35
 ^D,2 z E, A,,2 z D, | E,G,F,D, G,B,^G,E, | A,A,,/B,,/ C,A,- A,G,F,B, | E,D, C,2 B,,2 z ^D, | %39
 E,2 z G, ^A,,F,,G,,E,, | ^C,B,,^A,,F,, B,,C,/D,/ E,F,/G,/ | %41
 ^A,,B,,F,F,, B,,B,/=A,/ G,/F,/E,/^D,/ | E,2 z G, ^D,2 z B,, | E,2 z G, B,2 z2 | %44
 z E,F,G, z F,^C,F, | z ^D,B,,D, E,2 z C, | ^G,,2 z E,, A,,2 z ^D,, | E,,2 z C, F,,2 z ^D, | %48
 E,2 z G, B,2 z A, | ^G,2 z E, A,2 z C | ^D,2 z B,, E,2 z G, | F,2 z F, A,G,F,E, | %52
 ^D,E,B,B,, E,,2 z ^A, | B,2 z F, ^D,2 z F, | G,C,A,,B,, E,,4 |] %55

